!!!COM: Bach, Johann Sebastian
!!!CDT: 1685/3//-1750/7/28/
!!!OTL@@DE: Wenn wir in hoechsten Noeten sein
!!!AGN: 4-Part Chorale; Chorale Prelude
!!!SCT: BH 068
!!!SCT: BWV 431
**harm	**root	**kern	**kern	**kern	**kern
!	!	!bass	!tenor	!alto	!soprno
*	*Iorgan	*Iorgan	*Iorgan	*Iorgan	*Iorgan
*	*	*clefF4	*clefF4	*clefG2	*clefG2
*M4/4	*M4/4	*M4/4	*M4/4	*M4/4	*M4/4
*met(c)	*met(c)	*met(c)	*met(c)	*met(c)	*met(c)
*MM60	*MM60	*MM60	*MM60	*MM60	*MM60
*k[b-]	*k[b-]	*k[b-]	*k[b-]	*k[b-]	*k[b-]
*F:	*F:	*F:	*F:	*F:	*F:
I	4FF	8F	8A	[4c	4f
.	.	8E	8G	.	.
=1	=1	=1	=1	=1	=1
viiob/V	4BB	4D	4F	8c]	4f
.	.	.	.	8Bn	.
Vb	8CC	8E	8c	[4c	4g
V7	8CC	8C	8B-y	.	.
I	4FF	4F	8A	8c]	4a
.	.	.	8B-	8d	.
V	4CC	4C	4c	4e	8g
.	.	.	.	.	8a
=2	=2	=2	=2	=2	=2
IVb	8BB-	8D	8F	8f	4b-
V7b	8CC	8E	8c	[8g	.
I	4FF	4F	4c	8g]	4a
.	.	.	.	[8f	.
ii7b	8GG	4BB-	8d	8f]	4.g
iib	8GG	.	8B-	16e	.
.	.	.	.	16d	.
V	4CC	4C	8G	4e	.
.	.	.	16c	.	8g
.	.	.	16B-	.	.
=3	=3	=3	=3	=3	=3
I;	2FF;	2FF;	2A;	2c;	2f;
r	4r	4r	4r	4r	4r
I	4FF	8F	4c	[4f	4a
.	.	8E-	.	.	.
=4	=4	=4	=4	=4	=4
IVb	8BB-	8D	8d	8f]	4b-
V7b	8CC	8En	8c	[8g	.
I	4FF	4F	4c	8g]	4a
.	.	.	.	[8f	.
V7b/V	8GG	8BBn	8d	8f]	4g
V	8CC	8C	4c	8e	.
viio/V	4BB	4D	.	4d	4f
.	.	.	8Bn	.	.
!!linebreak: 2
=5	=5	=5	=5	=5	=5
V	4CC	8C	4c	4G	4e
.	.	8BB-y	.	.	.
Ib	4FF	8AA	4F	4c	4f
.	.	8FF	.	.	.
V;	4CC;	4C;	4E;	4c;	4g;
iii	4AA	4AA	4A	8e	4cc
.	.	.	.	8f#	.
=6	=6	=6	=6	=6	=6
ii	8GG	4GG	8d	8g	4b-
viioD7/vi	8CC#	.	8c#	8e	.
vi	4DD	8D	4d	8fn	4a
.	.	8Cn	.	8e	.
Vb/V	4GG	4BBn	4G	[4d	8g
.	.	.	.	.	8f
V	4CC	4C	4G	8d]	4e
.	.	.	.	[8c	.
=7	=7	=7	=7	=7	=7
I	4FF	4FF	4A	8c]	4f
.	.	.	.	16d	.
.	.	.	.	16c	.
V/V	4GG	4GG	8G	4Bn	4d
.	.	.	8F	.	.
V;	4CC;	4C;	4E;	4G;	4c;
I	4FF	4FF	4c	8f	4a
.	.	.	.	8e-	.
=8	=8	=8	=8	=8	=8
ii	4GG	4GG	4B-	8d	4b-
.	.	.	.	8en	.
Ib	4FF	8AA	[4c	[4f	4a
.	.	8BB-	.	.	.
V	4CC	4C	8.c]	8f]	4g
.	.	.	.	[8e	.
.	.	.	16B-	.	.
vi	8DD	4D	8A	8e]	4f
IVb	8BB-	.	8B-	16d	.
.	.	.	.	16e	.
=9	=9	=9	=9	=9	=9
Ib	4FF	8AA	4c	4.f	4a
.	.	8BB-	.	.	.
V	4CC	4C	8.c	.	4g
.	.	.	.	8e	.
.	.	.	16B-	.	.
I;	4FF;	4FF;	4A;	4c;	4f;
==	==	==	==	==	==
*-	*-	*-	*-	*-	*-
!!chor2scor: -l 2 -s 0.6 -o %b.pmx
!!!YEC: Copyright 1994, David Huron
!!!YEC: Changes/Additions Copyright 2001 by Craig Stuart Sapp
!!!license: GNU General Public License (http://www.gnu.org/copyleft/gpl.html)
!!!SMA: 371 Bach Chorales, edited by Ludwig Erk, C.F. Peters
!!!PDT: 1850, 1865
!!!ONB: Harmony and Root analysis done manually
